X:1
T:O Lucia , miau, miau
T:Orlando di Lasso
T:O Lucia , miau, miau
C:Orlando di Lasso
%%score [ 1 2 3 ]
L:1/8
Q:1/4=160
M:4/4
K:C
V:1 treble nm="Soprano" snm="S"
V:2 treble nm="Tenor" snm="T"
V:3 treble-8 nm="Bass" snm="B"
V:1
 C2 C2 G4 | E4 z4 | B2 B2 e4 | d6 e2 | c2 d2 e4 | c2 c2 c4- | c2 B2 G2 A2 | B2 d4 B2 | d4 B2 c2- | %9
w: O Lu- ci-|a,|O Lu- ci-|a, mi-|au, mi- au,|tu nun gab-|* bi chiu a|me, Sien- ta,|sien- ta ma-|
 c2 c2 d4 | c4 d4- | d2 d2 d4 | d2 d2 d2 d2 | e4 d2 B2 | B2 B2 A4 | B4 z2 c2- | c2 B2 A2 G2 | %17
w: * tu- na-|ta! O|_ mu- su-|ta lic- ca pi-|gna- ta, cu-|la cac- ca-|ta! Chi|_ e chis- sa|
 A2 A2 B4 | A4 B4- | B2 B2 c2 c2 | A2 A2 B4 | G2 G2 G4- | G2 A2 B2 c2 | B4 B4 | c6 B2 | %25
w: bil- la- naz-|za, co-|* me gat- ta|chia- ma me?|Gior- gia tu-|* a spor- tu-|na- ta|Che vol|
 A2 G2 A2 A2 | G4 B2 B2 | A4 B4 | c6 B2 | A4 A4 | B2 G2 A2 c2 | c2 A2 B4 | A2 c4 c2 | c4 d2 B2- | %34
w: tan- to ben a|te. Ia ti|pre- ga,|cu- la|mi- a,|Las- sa pas- sar|biz- za- ri-|a, Ch'ai- a|sta- tua mar-|
 B2 c2 A4 | G4 B2 c2 | d6 d2 | c2 B2 A4 | B4 c4 | B4 G2 G2 | A2 A2 B4 | c4 B4 | G2 G2 A2 A2 | B8 || %44
w: * mo- ra-|ta, Per- che|l'au- tra|tu tro- va-|ta Che|non vo- le|ben a te,|Che non|vo- le ben a|te!|
"^Secunda parte" d6 d2 | e4 d2 B2 | B2 d2 c4 | B2 c4 d2 | e4 e4 | c6 c2 | d4 d2 d2 | c4 B4 | %52
w: O Lu-|ci- a, su-|sa da liet-|ta, non dor-|mi- re,|Scien- ta|Gior- gia bel-|la can-|
 A4 A4 | c6 c2 | d4 d2 d2 | c4 B4 | A4 A4 |[M:3/2][Q:1/4=320] B8 d4 | c8 B4 | c8 B4 | A8 B4 | %61
w: ta- re,|Scien- ta|Gior- gia bel-|la can-|ta- re,|Con zan-|pog- na~e|tan- mo-|ri- na,|
 G8 A4 | B8 G4 | c8 c4 | d8 c4 |[M:2/2][Q:1/4=160] z4 d2 d2 | e4 ^c2 c2 | ^c6 d2 | B2 c2 A4 | %69
w: Con zan-|pog- na~e|tan- mo-|ri- na,|Per vo-|ler, per vo-|ler far|can- ta- ra-|
 G4 d4- | d2 d2 d4- | d2 c2 B2 A2 | B4 A4 | A2 A2 A4- | A2 G2 A2 B2 | c4 B2 B2 | G2 A2 B2 B2 | %77
w: ta; O|_ Lu- ci-|* a~in zuc- ca-|ra- ta,|Per- che pur|_ stai cor- ruz-|za- ta? Mi-|au, mi- au, grat-|
 G2 G2 A4 | B4 G4- | G2 G2 A4 | A2 c2 c2 A2 | B4 A2 c2 | c2 A2 B4 | A4 d4- | d2 c2 c2 B2 | %85
w: ta ma- la-|ta! Va|_ cuc- ci-|na, lic- ca pi-|gna- ta, cu-|la cac- ca-|ta! Sien-|* ta, sien- ta|
 A2 G2 A4 | G4 d4- | d2 c2 c2 B2 | A2 G2 A4 | G4 A2 B2 | c6 B2 | A2 G2 A4 | G4 B2 B2 | c6 B2 | %94
w: ma- tu- na-|ta, Sien-|* ta, sien- ta|ma- tu- na-|ta, Gior- gia|tu- a|vol can- ta-|ra Che vol|tan- to|
 G2 A2 B4 | d4 d4 | c4 B4 | c4 A4 | B8 | d4 d4 | c4 B4 | c4 A4 | B8 |] %103
w: ben' a te,|Che vol|tan- to|ben' a|te,|Che vol|tan- to|ben' a|te!|
V:2
 z4 C2 C2 | G4 E4 | G2 G2 c4 | B6 c2 | A2 B2 c4 | A2 A2 A4- | A2 G2 D2 ^F2 | G2 B4 G2 | B4 G2 A2- | %9
w: O Lu-|ci- a,|O Lu- ci-|a, mi-|au, mi- au,|tu nun gab-|* bi chiu a|me, Sien- ta,|sien- ta ma-|
 A2 c4 B2 | c4 B4- | B2 B2 B4 | A2 B2 B2 B2 | c4 B2 G2 | G2 G2 ^F4 | G4 z2 A2- | A2 G2 F2 E2 | %17
w: * tu- *|ta! O|_ mu- su-|ta lic- ca pi-|gna- ta, cu-|la cac- ca-|ta! Chi|_ e chis- sa|
 F2 A4 ^G2 | A4 G4- | G2 G2 E2 G2 | G2 ^F2 G4 | E2 E2 E4- | E2 ^F2 G2 A2 | ^G4 G4 | A6 G2 | %25
w: bil- la- naz-|za, co-|* me gat- ta|chia- ma me?|Gior- gia tu-|* a spor- tu-|na- ta|Che vol|
 ^F2 G2 G2 F2 | G4 G2 G2 | ^F4 G4 | A6 G2 | ^F4 F4 | G2 E2 F2 A2 | G2 A4 ^G2 | A2 A4 A2 | %33
w: tan- to ben a|te. Ia ti|pre- ga,|cu- la|mi- a,|Las- sa pas- sar|biz- za- ri-|a, Ch'ai- a|
 A4 F2 G2- | G2 G2 ^F4 | G4 G2 A2 | B6 B2 | A2 G2 ^F4 | G4 A4 | G4 E2 G2 | G2 ^F2 G4 | A4 G4 | %42
w: sta- tua mar-|* mo- ra-|ta, Per- che|l'au- tra|tu tro- va-|ta Che|non vo- le|ben a te,|Che non|
 E2 G2 G2 ^F2 | G8 || B6 B2 | c4 B2 G2 | G2 B2 A4 | G2 A4 B2 | c4 c4 | A6 A2 | _B4 B2 B2 | A4 G4 | %52
w: vo- le ben a|te!|O Lu-|ci- a, su-|sa da liet-|ta, non dor-|mi- re,|Scien- ta|Gior- gia bel-|la can-|
 ^F4 F4 | A6 A2 | _B4 B2 B2 | A4 G4 | ^F4 F4 |[M:3/2] G8 B4 | A8 G4 | A8 G4 | ^F8 G4 | E8 ^F4 | %62
w: ta- re,|Scien- ta|Gior- gia bel-|la can-|ta- re,|Con zan-|pog- na~e|tan- mo-|ri- na,|Con zan-|
 G8 E4 | A8 c4 | B8 c4 |[M:2/2] z4 B2 B2 | c4 A2 A2 | A6 ^F2 | G2 G4 ^F2 | G4 B4- | B2 B2 B4- | %71
w: pog- na~e|tan- mo-|ri- na,|Per vo-|ler, per vo-|ler far|can- ta- ra-|ta; O|_ Lu- ci-|
 B2 A2 ^G2 A2- | A2 ^G2 A4 | F2 F2 F4- | F2 E2 ^F2 G2- | G2 ^F2 G2 D2 | E2 ^F2 G2 D2 | E2 G4 ^F2 | %78
w: * a~in zuc- ca-|* ra- ta,|Per- che pur|_ stai cor- ruz-|za- * ta? Mi-|au, mi- au, grat-|ta ma- la-|
 G4 E4- | E2 E2 F4 | F2 A2 A2 A2- | A2 ^G2 A2 A2 | A2 A4 ^G2 | A4 B4- | B2 G2 A2 G2 | ^F2 G4 F2 | %86
w: ta! Va|_ cuc- ci-|na, lic- ca pi-|* gna- ta, cu-|la cac- ca-|ta! Sien-|* ta, sien- ta|ma- tu- na-|
 G4 B4- | B2 G2 A2 G2 | ^F2 G4 F2 | G4 ^F2 G2 | A6 G2 | F2 E2 F4 | E4 G2 G2 | A6 G2 | E2 ^F2 G4 | %95
w: ta, Sien-|* ta, sien- ta|ma- tu- na-|ta, Gior- gia|tu- a|vol can- ta-|ra Che vol|tan- to|ben' a te,|
 B4 B4 | A4 G4 | E2 G4 ^F2 | G8 | B4 B4 | A4 G4 | E2 G4 ^F2 | G8 |] %103
w: Che vol|tan- to|ben' _ a|te,|Che vol|tan- to|ben' _ a|te!|
V:3
 z8 | c2 c2 g4 | e4 c2 c2 | g4 g2 c2 | f2 g2 c4 | f2 f2 f4- | f2 e2 B2 d2 | G4 g4- | g2 g2 e2 f2 | %9
w: |O Lu- ci-|a, O Lu-|ci- a, mi-|au, mi- au,|tu nun gab-|* bi chiu a|me, Sien-|* ta, sien- ta|
 f2 a2 g4 | c4 z2 g2- | g2 g2 g4 | d2 g2 g2 g2 | c4 g2 G2 | G2 G2 d4 | G4 z2 f2- | f2 e2 d2 c2 | %17
w: ma- tu- na-|ta! O|_ mu- su-|ta lic- ca pi-|gna- ta, cu-|la cac- ca-|ta! Chi|_ e chis- sa|
 d2 f2 e4 | A4 e4- | e2 e2 c2 c2 | d2 d2 G4 | c2 c2 c4- | c2 d2 e2 A2 | e4 e4 | f6 e2 | %25
w: bil- la- naz-|za, co-|* me gat- ta|chia- ma me?|Gior- gia tu-|* a spor- tu-|na- ta|Che vol|
 d2 e2 c2 d2 | G4 G2 G2 | d4 e4 | f6 e2 | d4 d4 | G2 c2 d2 A2 | e2 f2 e4 | A2 f4 f2 | f4 d2 e2- | %34
w: tan- to ben a|te. Ia ti|pre- ga,|cu- la|mi- a,|Las- sa pas- sar|biz- za- ri-|a, Ch'ai- a|sta- tua mar-|
 e2 c2 d4 | G4 e2 f2 | g6 g2 | f2 g2 d4 | e4 f4 | e4 c2 e2 | d2 d2 G4 | f4 e4 | c2 e2 d2 d2 | G8 || %44
w: * mo- ra-|ta, Per- che|l'au- tra|tu tro- va-|ta Che|non vo- le|ben a te,|Che non|vo- le ben a|te!|
 g6 g2 | c4 g2 G2 | G2 g2 f4 | e2 f4 g2 | c4 c4 | f6 f2 | _B4 B2 B2 | F4 G4 | d4 d4 | f6 f2 | %54
w: O Lu-|ci- a, su-|sa da liet-|ta, non dor-|mi- re,|Scien- ta|Gior- gia bel-|la can-|ta- re,|Scien- ta|
 _B4 B2 B2 | F4 G4 | d4 d4 |[M:3/2] e8 g4 | f8 e4 | f8 e4 | d8 e4 | c8 d4 | e8 c4 | f8 a4 | g8 c4 | %65
w: Gior- gia bel-|la can-|ta- re,|Con zan-|pog- na~e|tan- mo-|ri- na,|Con zan-|pog- na~e|tan- mo-|ri- na,|
[M:2/2] z4 g2 g2 | a4 A2 A2 | A6 d2 | e2 c2 d4 | G8 | g6 g2 | g2 f2 e2 f2 | e4 A4 | d2 d2 d4- | %74
w: Per vo-|ler, per vo-|ler far|can- ta- ra-|ta;|O Lu-|ci- a~in zuc- ca-|ra- ta,|Per- che pur|
 d2 c2 d2 G2 | A4 G2 G2 | c2 d2 G2 G2 | c2 e2 d4 | G4 c4- | c2 c2 F4 | F2 f2 f2 f2 | e4 A2 f2 | %82
w: _ stai cor- ruz-|za- ta? Mi-|au, mi- au, grat-|ta ma- la-|ta! Va|_ cuc- ci-|na, lic- ca pi-|gna- ta, cu-|
 f2 f2 e4 | A4 g4- | g2 c2 f2 e2 | d2 e2 d4 | G4 g4- | g2 c2 f2 e2 | d2 e2 d4 | G4 d2 e2 | f6 e2 | %91
w: la cac- ca-|ta! Sien-|* ta, sien- ta|ma- tu- na-|ta, Sien-|* ta, sien- ta|ma- tu- na-|ta, Gior- gia|tu- a|
 d2 c2 F4 | c4 G2 G2 | F6 G2 | c2 d2 G4 | g4 g4 | f4 e4 | c4 d4 | G8 | g4 g4 | f4 e4 | c4 d4 | %102
w: vol can- ta-|ra Che vol|tan- to|ben' a te,|Che vol|tan- to|ben' a|te,|Che vol|tan- to|ben' a|
 G8 |] %103
w: te!|

